X:489
T:Wheel Hoss
C:Chris Thile (Merlefest Allstar Jam, 1998)
N:Transcribed by Steve Keating
R:bluegrass
L:1/8
Q:1/4=310
M:4/4
K:G
z8 | "G"G,B, DG "F"=F2 FG | "G"G,B, DG "F"=FD FG | "G"G,B, DG "F"=F2 Bc | "D"dc Bc "G"BG Bc | 
dg zd "F"ed c2 | "G"^AB GE "F"D=F EC | "G"EE DC "F"DE DC | "D"^A,B, DG "G"z2 GA | 
Bc de "F"=f2 de | "G"=fg ac' "F"bg ^ab | "G"g2 GA "F"gb d'b | "D"d'e' g'2 "G"=f'f' e'c' | 
d'e' d'c' "F"d'c' gb | "G"g'2 za "F"=f'g ge' | "G"=ff d'f "F"ec' dd | "D"^ab ge "G"g2 A,A, | 
G,2 zg z2 ga | ge dc BG G2 | cd g2 [g2d2] ga | bg ag eg G,2 | ab za ge ga | ge dc BG Bc | 
cd gd =fd ed | "D"cG ^AB "G"G2 [GG,][GG,] | 
M:2/4
[G4G,4] | 
M:4/4
z4 G2 G2 | [=fc][gd] g2 G,2 ga | ge dc BG G2 | [=fc][gd] [g2d2] [g2d2] ga | bg ag eg G,b | 
[d'2G,2] ^ab gd =fe | dc ec de dc | dc ^AB g2 gg | "D"bd' e'2 "G"g'[g'G,] zg' | 
M:2/4
[g'gDG,][g'gDG,] [g'gDG,][g'gDG,] | 
M:4/4
[g'8g8D8G,8] | z8 | z8 | 


